X:156
T:Jackie Coleman's
Z: id:dc-reel-143
M:C
L:1/8
K:D Major
B|AFF2 EFDE|F2AF BFAF|E2BE dEBE|ABde fedB|!
AFF2 EFDE|F2AF BFAF|E2BE dEBE|ABde fdd:|!
e|fddc dfag|fddc dfaf|eAA2 eAfA|eAA2 efge|!
fddc dfag|fddc dfaf|g3f gbag|faeg fdd:|!